assets/images/icon-gameplay.svg

<?xml version="1.0" encoding="UTF-8" standalone="no" ?>
<!DOCTYPE svg PUBLIC "-//W3C//DTD SVG 1.1//EN" "http://www.w3.org/Graphics/SVG/1.1/DTD/svg11.dtd">
<svg xmlns="http://www.w3.org/2000/svg" xmlns:xlink="http://www.w3.org/1999/xlink" version="1.1" width="500" height="500" viewBox="0 0 500 500" xml:space="preserve">
<desc>Created with Fabric.js 5.2.4</desc>
<defs>
</defs>
<g transform="matrix(1 0 0 1 250 250)" id="6138446b-5dae-4678-a87a-b41b1ce8295e"  >
<rect style="stroke: none; stroke-width: 1; stroke-dasharray: none; stroke-linecap: butt; stroke-dashoffset: 0; stroke-linejoin: miter; stroke-miterlimit: 4; fill: rgb(255,255,255); fill-rule: nonzero; opacity: 1; visibility: hidden;" vector-effect="non-scaling-stroke"  x="-250" y="-250" rx="0" ry="0" width="500" height="500" />
</g>
<g transform="matrix(0 0 0 0 0 0)" id="ef04f4d4-08cb-4273-8429-3e2d814db775"  >
</g>
<g transform="matrix(1.01 0 0 1.01 250.04 250.03)"  >
<path style="stroke: rgb(0,255,255); stroke-width: 32; stroke-dasharray: none; stroke-linecap: butt; stroke-dashoffset: 0; stroke-linejoin: miter; stroke-miterlimit: 10; fill: none; fill-rule: nonzero; opacity: 1;" vector-effect="non-scaling-stroke"  transform=" translate(-256, -256.01)" d="M 467.51 248.83 C 449.11 165.65 421.82 112.59 378.08 99.66000000000003 C 369.6086379103755 97.18877822519309 360.82434007809127 95.95601250179739 351.99999999999994 96.00000000000001 C 325.11 96 303.89 112 256 112 C 208.11 112 186.85 96 160 96 C 150.80745543626003 95.95240969165559 141.65300309667617 97.18422202852608 132.79999999999998 99.66000000000001 C 89 112.59 61.94 165.7 43.33 248.83 C 24.33 333.74 27.769999999999996 400.83000000000004 64.91 413.71000000000004 C 90.91 422.71000000000004 114.16 404.1 136.18 376.71000000000004 C 161.18 345.51000000000005 191.97 335.91 256 335.91 C 320.03 335.91 349.62 345.51000000000005 374.65999999999997 376.71000000000004 C 396.65999999999997 404.12000000000006 420.77 422.50000000000006 446.08 413.87 C 487.09999999999997 399.86 486.52 334.74 467.51 248.83 z" stroke-linecap="round" />
</g>
<g transform="matrix(1.01 0 0 1.01 286.4 217.7)"  >
<circle style="stroke: none; stroke-width: 1; stroke-dasharray: none; stroke-linecap: butt; stroke-dashoffset: 0; stroke-linejoin: miter; stroke-miterlimit: 4; fill: rgb(0,255,255); fill-rule: nonzero; opacity: 1;" vector-effect="non-scaling-stroke"  cx="0" cy="0" r="20" />
</g>
<g transform="matrix(1.01 0 0 1.01 330.84 262.14)"  >
<path style="stroke: none; stroke-width: 1; stroke-dasharray: none; stroke-linecap: butt; stroke-dashoffset: 0; stroke-linejoin: miter; stroke-miterlimit: 4; fill: rgb(0,255,255); fill-rule: nonzero; opacity: 1;" vector-effect="non-scaling-stroke"  transform=" translate(-336, -268)" d="M 336 288 C 327.90621049150525 287.9999747068684 320.61034145604214 283.12170343571034 317.5176740000241 275.64207532898297 C 314.42500654400607 268.1624472222556 316.1453058535727 259.5561817218692 321.87563773298007 253.84017567216046 C 327.6059696123874 248.12416962245166 336.21651427506595 246.42541826052337 343.6883776162523 249.53679847179535 C 351.16024095743865 252.64817868306733 356.0202344737318 259.9562357845974 356 268.05 C 355.9724345045336 279.0761637511698 347.0261982080391 288.0000344569231 336 288 z" stroke-linecap="round" />
</g>
<g transform="matrix(1.01 0 0 1.01 330.84 173.26)"  >
<circle style="stroke: rgb(0,255,255); stroke-width: 1; stroke-dasharray: none; stroke-linecap: butt; stroke-dashoffset: 0; stroke-linejoin: miter; stroke-miterlimit: 4; fill: rgb(0,255,255); fill-rule: nonzero; opacity: 1;" vector-effect="non-scaling-stroke"  cx="0" cy="0" r="20" />
</g>
<g transform="matrix(1.01 0 0 1.01 375.28 217.7)"  >
<circle style="stroke: none; stroke-width: 1; stroke-dasharray: none; stroke-linecap: butt; stroke-dashoffset: 0; stroke-linejoin: miter; stroke-miterlimit: 4; fill: rgb(0,255,255); fill-rule: nonzero; opacity: 1;" vector-effect="non-scaling-stroke"  cx="0" cy="0" r="20" />
</g>
<g transform="matrix(1.01 0 0 1.01 153.08 217.7)"  >
<path style="stroke: rgb(0,255,255); stroke-width: 32; stroke-dasharray: none; stroke-linecap: round; stroke-dashoffset: 0; stroke-linejoin: round; stroke-miterlimit: 4; fill: rgb(0,255,255); fill-rule: nonzero; opacity: 1;" vector-effect="non-scaling-stroke"  transform=" translate(-160, -224)" d="M 160 176 L 160 272 M 208 224 L 112 224" stroke-linecap="round" />
</g>
<g transform="matrix(0 0 0 0 0 0)"  >
<g style=""   >
</g>
</g>
<g transform="matrix(0 0 0 0 0 0)"  >
<g style=""   >
</g>
</g>
<g transform="matrix(0 0 0 0 0 0)"  >
<g style=""   >
</g>
</g>
<g transform="matrix(0 0 0 0 0 0)"  >
<g style=""   >
</g>
</g>
<g transform="matrix(NaN NaN NaN NaN 0 0)"  >
<g style=""   >
</g>
</g>
</svg>

<?xml version="1.0" encoding="UTF-8" standalone="no"?>
<svg
   class="ionicon"
   viewBox="0 0 512 512"
   version="1.1"
   id="svg3"
   sodipodi:docname="icon-gameplay.svg"
   inkscape:version="1.3.2 (091e20e, 2023-11-25, custom)"
   xmlns:inkscape="http://www.inkscape.org/namespaces/inkscape"
   xmlns:sodipodi="http://sodipodi.sourceforge.net/DTD/sodipodi-0.dtd"
   xmlns="http://www.w3.org/2000/svg"
   xmlns:svg="http://www.w3.org/2000/svg">
  <defs
     id="defs3" />
  <sodipodi:namedview
     id="namedview3"
     pagecolor="#ffffff"
     bordercolor="#000000"
     borderopacity="0.25"
     inkscape:showpageshadow="2"
     inkscape:pageopacity="0.0"
     inkscape:pagecheckerboard="0"
     inkscape:deskcolor="#d1d1d1"
     inkscape:zoom="1.6230469"
     inkscape:cx="256"
     inkscape:cy="256"
     inkscape:window-width="1920"
     inkscape:window-height="1027"
     inkscape:window-x="1912"
     inkscape:window-y="-8"
     inkscape:window-maximized="1"
     inkscape:current-layer="svg3" />
  <path
     d="M 467.51,248.83 C 449.11,165.65 421.82,112.59 378.08,99.66 A 91.5,91.5 0 0 0 352,96 c -26.89,0 -48.11,16 -96,16 -47.89,0 -69.15,-16 -96,-16 a 99.09,99.09 0 0 0 -27.2,3.66 C 89,112.59 61.94,165.7 43.33,248.83 c -19,84.91 -15.56,152 21.58,164.88 26,9 49.25,-9.61 71.27,-37 25,-31.2 55.79,-40.8 119.82,-40.8 64.03,0 93.62,9.6 118.66,40.8 22,27.41 46.11,45.79 71.42,37.16 41.02,-14.01 40.44,-79.13 21.43,-165.04 z"
     fill="none"
     stroke="currentColor"
     stroke-miterlimit="10"
     stroke-width="32"
     id="path1"
     style="stroke:#00ffff" />
  <circle
     cx="292"
     cy="224"
     r="20"
     id="circle1"
     style="fill:#00ffff" />
  <path
     d="M 336,288 A 20,20 0 1 1 356,268.05 20,20 0 0 1 336,288 Z"
     id="path2"
     style="fill:#00ffff" />
  <circle
     cx="336"
     cy="180"
     r="20"
     id="circle2"
     style="fill:#00ffff" />
  <circle
     cx="380"
     cy="224"
     r="20"
     id="circle3"
     style="fill:#00ffff" />
  <path
     fill="none"
     stroke="currentColor"
     stroke-linecap="round"
     stroke-linejoin="round"
     stroke-width="32"
     d="m 160,176 v 96 m 48,-48 h -96"
     id="path3"
     style="stroke:#00ffff" />
</svg>
